img/image/design/footer-feedback-question-graphic.svg

<svg xmlns="http://www.w3.org/2000/svg" fill="none" viewBox="0.62 0.25 48.22 89">
<path d="M23.1655 60.7749C19.6733 60.7749 16.731 57.8881 17.6829 54.5281C17.9824 53.4707 18.3621 52.4431 18.8218 51.4452C20.1414 48.5809 21.7543 46.1257 23.6604 44.0797C25.5665 41.9519 27.4726 39.9468 29.3788 38.0645C31.2849 36.1004 32.8978 34.0135 34.2174 31.8038C35.537 29.5124 36.1968 27.139 36.1968 24.6839C36.1968 21.2466 35.1338 18.6278 33.0077 16.8273C30.8817 14.945 28.0225 14.0039 24.4302 14.0039C20.9845 14.0039 18.0153 14.9859 15.5227 16.9501C14.9753 17.3814 14.4614 17.8523 13.9812 18.3626C11.2202 21.2964 6.77532 23.1767 3.36892 21.0257V21.0257C0.958034 19.5034 -0.144699 16.4752 1.20778 13.9651C3.19477 10.2773 5.84035 7.30313 9.14451 5.04247C13.7632 1.85075 18.9684 0.254883 24.7601 0.254883C31.2849 0.254883 36.93 2.34178 41.6953 6.51557C46.4606 10.6894 48.8433 16.459 48.8433 23.8245C48.8433 27.2618 48.1834 30.4944 46.8638 33.5225C45.5442 36.4687 43.9313 39.0057 42.0252 41.1335C40.1191 43.2613 38.2129 45.3482 36.3068 47.3942C34.4007 49.3583 32.7878 51.4861 31.4682 53.7776C31.2937 54.0806 31.1308 54.3843 30.9794 54.6887C29.4241 57.8155 26.6577 60.7749 23.1655 60.7749V60.7749ZM29.0489 86.5542C27.436 88.3547 25.4932 89.2549 23.2205 89.2549C20.9478 89.2549 19.0051 88.3547 17.3922 86.5542C15.7793 84.7537 14.9729 82.585 14.9729 80.048C14.9729 77.511 15.7426 75.3422 17.2822 73.5418C18.8951 71.7413 20.8745 70.8411 23.2205 70.8411C25.4932 70.8411 27.436 71.7413 29.0489 73.5418C30.6617 75.3422 31.4682 77.511 31.4682 80.048C31.4682 82.585 30.6617 84.7537 29.0489 86.5542Z" fill="black"/>
</svg>

<svg xmlns="http://www.w3.org/2000/svg" fill="none" viewBox="0.62 0.25 48.22 89"><path d="M23.166 60.775c-3.493 0-6.435-2.887-5.483-6.247a21.1 21.1 0 0 1 1.139-3.083c1.32-2.864 2.932-5.32 4.838-7.365a135.682 135.682 0 0 1 5.719-6.015c1.906-1.965 3.519-4.051 4.838-6.261 1.32-2.292 1.98-4.665 1.98-7.12 0-3.437-1.063-6.056-3.19-7.857-2.125-1.882-4.984-2.823-8.577-2.823-3.445 0-6.415.982-8.907 2.946-.548.431-1.062.902-1.542 1.413-2.76 2.933-7.206 4.814-10.612 2.663-2.411-1.523-3.514-4.55-2.161-7.06 1.987-3.689 4.632-6.663 7.937-8.924C13.763 1.851 18.968.255 24.76.255c6.525 0 12.17 2.087 16.935 6.26 4.766 4.174 7.148 9.944 7.148 17.31 0 3.437-.66 6.67-1.98 9.698-1.319 2.946-2.932 5.483-4.838 7.61a434.42 434.42 0 0 1-5.718 6.261 32.274 32.274 0 0 0-4.839 6.384c-.174.303-.337.606-.489.91-1.555 3.127-4.321 6.087-7.813 6.087Zm5.883 25.78c-1.613 1.8-3.556 2.7-5.828 2.7-2.273 0-4.216-.9-5.829-2.7-1.613-1.801-2.42-3.97-2.42-6.507 0-2.537.77-4.706 2.31-6.506 1.613-1.8 3.593-2.7 5.939-2.7 2.272 0 4.215.9 5.828 2.7 1.613 1.8 2.42 3.969 2.42 6.506 0 2.537-.807 4.706-2.42 6.506Z" fill="#000"/></svg>
